X:1
T:Title
%%score ( 1 2 ) ( 3 4 )
L:1/8
Q:1/4=98
M:3/4
K:D
V:1 treble nm="Midi_74"
V:2 treble 
V:3 bass nm="Midi_74"
V:4 bass 
V:1
"^Rievaulx  (88. 88. L.M.)""^Father of heaven, whose love profound""^John Bacchus Dykes\n(1823-76)""^Edward Cooper\n(1770-1833)" A2 A2 A2 | %1
 A4 A2 | B4 B2 | A6 | d2 d2 B2 | E4 F2 | G4 G2 | F4 || D2 | F4 F2 | F4 F2 | A4 A2 | A6 | d2 c2 B2 | %14
 A4 G2 | F4 E2 | D4 |] %17
V:2
 D2 F2 F2 | G4 (FE) | D4 E2 | F6 | D2 D2 D2 | D4 D2 | D2 C4 | D4 || B,2 | (C2 D2) E2 | D4 D2 | %11
w: ||||||||Be-|fore * Thy|throne we|
w: ||||||||Be-|fore * Thy|throne we|
w: ||||||||Be-|fore * Thy|throne we|
w: ||||||||Be-|fore * Thy|throne we|
 (E2 F2) G2 | F6 | F2 F2 G2 | (A2 A,2) B,2 | D2 C4 | D4 |] %17
w: sin\- * ners|bend;|To us Thy|pard'\- * ning|love ex-|tend.|
w: sin\- * ners|bend;|To us Thy|sav\- * ing|grace ex-|tend.|
w: sin\- * ners|bend;|To us Thy|quick'\- * ning|power ex-|tend.|
w: sin\- * ners|bend;|Grace, par- don,~|life,\- * to|us ex-|tend.|
V:3
 F,2 A,2 D2 | E4 (DC) | B,4 C2 | D6 | A,2 A,2 B,2 | B,4 A,2 | (B,2 A,2) G,2 | A,4 || B,2 | %9
w: Fa- ther of|heaven, whose *|love pro-|found|A ran- som|for our|souls * hath|found,||
w: Al- migh- ty|Son, in *|car- nate|Word,|Our Pro- phet,|Priest, Re-|deem\- * er,|Lord,||
w: E- ter- nal|Spi- rit, *|by whose|breath|The soul is|raised from|sin * and|death,||
w: Je- hov- ah,|Fa- ther, *|Spi- rit,|Son,|Mys- ter- ious|God- head,|Three * in|One,||
 B,4 ^A,2 | B,4 D2 | D4 C2 | (D4 C2) | B,2 C2 D2 | D4 G,2 | A,4 G,2 | F,4 |] %17
w: ||||||||
w: ||||||||
w: ||||||||
w: ||||||||
V:4
 D,2 D,2 D,2 | C,4 D,2 | G,4 G,2 | D,6 | F,2 F,2 G,2 | G,4 F,2 | E,4 E,2 | D,4 || G,2 | F,4 F,,2 | %10
 B,,4 B,2 | A,4 A,,2 | D,6 | B,2 A,2 G,2 | F,4 E,2 | D,2 A,,4 | D,4 |] %17

